X: 3
T: Flett From Flotta
Z: DonaldK
S: https://thesession.org/tunes/11696#setting29871
R: reel
M: 4/4
L: 1/8
K: Amaj
fe|c3/e/ cB c2Ac|e3/f/ ec e2ce|f3/e/ fa f2ec|fecA B2 fe|
c3/e/ cB c2Ac|e3/f/ ec a2A3/B/|c2a3/f/ ecBc|A2A3/B/ A2||
Ac|e2Ac a2Ac|e3/f/ ec e2Ac|a2Ac e2ce|fecA B2 fe|
c3/e/ cB c2Ac|e3/f/ ec a2A3/B/|c2a3/f/ ecBc|A2A3/B/ A2|]
